_src/static/img/icon/star.svg

<svg width="24" height="24" viewBox="0 0 24 24" fill="none" xmlns="http://www.w3.org/2000/svg">
<g clip-path="url(#clip0)">
<path d="M23.9374 9.20597C23.7803 8.72 23.3493 8.37484 22.8393 8.32888L15.9123 7.69989L13.1731 1.28866C12.9712 0.818794 12.5112 0.514648 12.0001 0.514648C11.4891 0.514648 11.0291 0.818794 10.8271 1.28975L8.08797 7.69989L1.15982 8.32888C0.65077 8.37593 0.220828 8.72 0.0628038 9.20597C-0.0952203 9.69195 0.0507185 10.225 0.435799 10.561L5.67183 15.153L4.12785 21.9543C4.01487 22.4544 4.20897 22.9713 4.62389 23.2712C4.84692 23.4324 5.10785 23.5144 5.37098 23.5144C5.59786 23.5144 5.8229 23.4532 6.02487 23.3324L12.0001 19.7612L17.9732 23.3324C18.4103 23.5953 18.9612 23.5713 19.3752 23.2712C19.7904 22.9704 19.9843 22.4533 19.8713 21.9543L18.3273 15.153L23.5633 10.5619C23.9484 10.225 24.0955 9.69286 23.9374 9.20597Z" fill="#FFC107"/>
</g>
<defs>
<clipPath id="clip0">
<rect width="24" height="24" fill="white"/>
</clipPath>
</defs>
</svg>

<svg width="24" height="24" fill="none" xmlns="http://www.w3.org/2000/svg"><g clip-path="url(#clip0)"><path d="M23.937 9.206a1.273 1.273 0 00-1.098-.877l-6.927-.63-2.739-6.41a1.276 1.276 0 00-2.346 0L8.088 7.7l-6.928.63a1.275 1.275 0 00-.724 2.232l5.236 4.592-1.544 6.801a1.275 1.275 0 001.897 1.378L12 19.762l5.973 3.57a1.276 1.276 0 001.898-1.378l-1.544-6.801 5.236-4.591c.385-.337.533-.87.374-1.356z" fill="#FFC107"/></g><defs><clipPath id="clip0"><path fill="#fff" d="M0 0h24v24H0z"/></clipPath></defs></svg>
